X:1
T:We’ll Follow On
T:Charles King Langley, Sr.
T:We’ll Follow On
T:Public Domain
T:Public Domain
C:Charles King Langley, Sr.
Z:Public Domain
%%score ( 1 2 ) ( 3 4 )
L:1/8
M:4/4
K:Eb
V:1 treble 
V:2 treble 
V:3 bass 
V:4 bass 
V:1
 (G>F) | E2 E2 (E>F) ([EG]>[FA]) | [Ac]2 [GB]2 [GB]2 (e>c) | [GB]2 [EG]2 [EG]2 E2 | [DF]6 (G>F) | %5
w: 1.~O *|py ones, that * sweet- *|yon- der world so *|Your foot- prints on|sands of *|
w: 2.~We’ll *|of Him, our * bless- *|laid His glo- ry *|Who bore our sins|on the *|
w: 3.~We *|low on with * trust- *|o’er life’s trou- bled *|The same pro- tect-|hand is *|
 E2 E2 (E>F) (G>A) | [Ec]2 [EB]2 [EB]2 [Ec]2 | E2 E2 [EG]2 [DF]2 | E6 ||"^Refrain" [GB]2 | %10
w: Were left to * guide *|||||
w: That we might * wear *|||||
w: That led you, * day *|||||
 [Ac]2 [EA]2 [EA]2 [Ac]2 | [GB]2 [EG]2 [EG]2 E2 | [DF]2 [Fd]2 [EF]2 [Ec]2 | (D4 E2) [DA]2 | %14
w: ||||
w: ||||
w: ||||
 [EG]2 [GB]2 (GF) E2 | [CF]2 [CE]2 [Ec]2 (E>F) | [EG]2 [EB]2 ([FA][EG]) [DF]2 | E6 |] %18
w: ||||
w: ||||
w: ||||
V:2
 E2 | E2 E2 E2 x2 | x6 A2 | x6 E2 | x6 E2 | E2 E2 E2 E2 | x8 | E2 E2 x4 | E6 || x2 | x8 | x6 E2 | %12
w: hap-|ly sing, In|fair;|the|time,|us there. * *|||||||
w: sing|èd Lord, Who|down;|up-|cross,|a crown. * *|||||||
w: fol-|ing hearts, For|way,|ing|ours,|by day. * *|||||||
 x8 | B6 x2 | x4 E2 E2 | x6 E2 | x8 | E6 |] %18
w: ||||||
w: ||||||
w: ||||||
V:3
 (B,>A,) | [E,G,]2 [E,G,]2 G,>A, [E,B,]2 | [E,E]2 [E,E]2 [E,E]2 (C>E) | %3
w: ~ *|~ ~ ~ ~ ~|~ ~ ~ ~ *|
 [E,E]2 [E,B,]2 [E,B,]2 [E,G,]2 | [B,,B,]6 (B,>A,) | [E,G,]2 [E,G,]2 (G,>A,) (B,>F,) | %6
w: ~ ~ ~ ~|~ ~ *|~ ~ ~ * ~ *|
 [E,A,]2 [E,G,]2 [E,G,]2 [A,,A,]2 | [B,,G,]2 [B,,G,]2 [B,,B,]2 [B,,A,]2 | [E,G,]6 || [E,E]2 | %10
w: ~ ~ ~ We’ll|fol- low on, still|look-|ing|
 [A,,E]2 [A,,C]2 [A,,C]2 [A,,E]2 | [E,E]2 [E,B,]2 [E,B,]2 [G,B,]2 | %12
w: up, Be- yond the|e- ther blue, Where,|
 [F,B,]2 [F,B,]2 [F,=A,]2 [F,A,]2 | (B,,2 A,2 G,2) [F,B,]2 | [E,B,]2 [E,E]2 (B,A,) [E,G,]2 | %15
w: by and by, thro’|grace * * di-|We’ll meet and * sing|
 [A,,A,]2 [A,,A,]2 [A,,A,]2 [A,,C]2 | [B,,B,]2 [B,,G,]2 [B,,B,]2 [B,,A,]2 | [E,G,]6 |] %18
w: you. * * *|||
V:4
 E,2 | x4 E,2 x2 | x6 E,2 | x8 | x6 E,2 | x4 E,2 E,2 | x8 | x8 | x6 || x2 | x8 | x8 | x8 | B,4 x4 | %14
w: ~|~|~||~|~ ~||||||||vine,|
 x4 E,2 x2 | x8 | x8 | x6 |] %18
w: with||||

